X:1
T:Go to the Deeps of God’s Promise
T:Charles Hutchinson Gabriel
T:Go to the Deeps of God’s Promise
T:Public Domain
T:Public Domain
C:Charles Hutchinson Gabriel
Z:Public Domain
%%score ( 1 2 ) ( 3 4 )
L:1/8
M:6/4
K:D
V:1 treble 
V:2 treble 
V:3 bass 
V:4 bass 
V:1
 [FA]3 [^E^G] [FA]2 [=GB]2 [FA]2 D2 | [DF]6 [DF]4 [=CE]2 | [B,D]3 [B,G] [DB]2 [Dd]2 [Dc]2 [DB]2 | %3
w: 1.~Go to the deeps of God’s|ise; Ask free-|ly of Him, and re- ceive;|
w: 2.~Go to the deeps of God’s|ise; And know|of His won- der- ful might;|
w: 3.~Go to the deeps of God’s|ise; The bless-|ing is nev- er de- nied;|
w: 4.~Go to the deeps of God’s|ise; And claim|what- so- ev- er ye will;|
 [DA]6- [DA]4 [DA]2 | [CA]3 [CE] [DF]2 [EG]2 [FA]2 [EG]2 | [DF]6 [FA]4 [FB]2 | %6
w: All * good|may be had for the ask-|ing, If, seek-|
w: What- * ev-|er would be a true bless-|ing, For Je-|
w: He * loves,|and re- mem- bers His child-|ren, And ev-|
w: The * bless-|ing of God will not fail|thee, His Word|
 [Ec]3 [Ec] [Ec]2 [DB]2 [DB]2 [DB]2 | ([CA-]6 [GA]6) || %8
w: ing, you tru- ly be- lieve.||
w: sus’ sake, comes as thy right.||
w: ery good thing is sup- plied.||
w: He will sure- ly ful- fill.||
"^Refrain" [Fd]3 [Gd] [Ad]2 [Bd]2 [Ac]2 [GB]2 | [FA]6 [FA]4 [DF]2 | %10
w: ||
w: ||
w: ||
w: ||
 [EA]3 [CE] [DF]2 [EG]2 [FA]2 [EG]2 | [DF]6- [DF]4 [=CF][CE] | %12
w: ||
w: ||
w: ||
w: ||
 [B,D]3 [B,G] [DB]2 [Dd]2 [Dc]2 [DB]2 | (D4 C2) [DA]4 [DG][DG] | %14
w: ||
w: ||
w: ||
w: ||
 [DF]2 [DF]2 [DF]2 [CE]2 [CE]2 [CE]2 | D6- D4 z2 |] %16
w: ||
w: ||
w: ||
w: ||
V:2
 x10 D2 | x12 | x12 | x12 | x12 | x12 | x12 | x12 || x12 | x12 | x12 | x12 | x12 | A6 x6 | x12 | %15
w: prom-|||||||||||||||
w: prom-|||||||||||||||
w: prom-|||||||||||||||
w: prom-|||||||||||||||
 D6- D4 x2 |] %16
w: |
w: |
w: |
w: |
V:3
 [D,D]3 [D,D] [D,D]2 [D,D]2 [D,D]2 [D,F,]2 | [D,A,]6 [D,A,]4 [D,F,]2 | %2
w: ~ ~ ~ ~ ~ ~|~ ~ ~|
 [G,,G,]3 [G,,G,] [G,,G,]2 [G,,B,]2 [A,,A,]2 [B,,G,]2 | [D,F,]6- [D,F,]4 [D,F,]2 | %4
w: ~ ~ ~ ~ ~ ~|~ * ~|
 [A,,E,]3 [A,,A,] [A,,A,]2 [A,,A,]2 [A,,A,]2 [A,,A,]2 | [D,A,]6 [D,D]4 [D,D]2 | %6
w: ~ ~ ~ ~ ~ ~|~ ~ ~|
 [E,A,]3 [E,A,] [E,A,]2 [E,^G,]2 [E,G,]2 [E,G,]2 | ([A,,A,-]6 =A,6) || %8
w: ~ ~ ~ ~ ~ ~|~ *|
 [D,A,]3 [E,A,] [F,D]2 [G,B,]2 [G,C]2 [G,D]2 | [D,D]6 [D,D]4 [D,A,]2 | %10
w: to the deeps of God’s prom-|ise; There’s wide-|
 [A,,C]3 [A,,A,] [A,,A,]2 [A,,A,]2 [A,,A,]2 [A,,A,]2 | [D,A,]6- [D,A,]4 [D,A,][D,F,] | %12
w: ness of mean- ing un- told|In * the prom-|
 [G,,G,]3 [G,,G,] [G,,G,]2 [G,,B,]2 [A,,A,]2 [B,,G,]2 | ([D,F,]4 [E,G,]2) [F,A,]4 [G,,B,][G,,B,] | %14
w: is- es giv- en His peo-|ple, * And the trea-|
 [A,,A,]2 [A,,A,]2 [A,,A,]2 [A,,G,]2 [A,,G,]2 [A,,G,]2 | [D,F,]6- [D,F,]4 z2 |] %16
w: sures they ev- er un- fold.||
V:4
 x12 | x12 | x12 | x12 | x12 | x12 | x12 | x6 =A,6 || x12 | x12 | x12 | x12 | x12 | x12 | x12 | %15
w: |||||||Go||||||||
 x12 |] %16
w: |

